X:77
T:Polska efter Jöns Persson
T:(SvL Skåne nr. 77)
R:Polska
Z:Patrik Månsson, 2009-01-28
O:Roalöv, Skåne
S:efter Jöns Persson
S:Svenska Låtar Skåne
B:Svenska Låtar Skåne
M:3/4
L:1/16
K:D
|: A2d2 cdef gfed | cded cdef g2f2 |
A2d2 cdef gfed | (cd)cB B2A2 A4 :: abaf d2df a2af |
g2(gf) e^def g2(fg) | abaf =d2df a2af |
g2(gf) e^def g2f2 | G2GG F2FF E2g2 | (fe)dc e2d2 d4 :|

